X: 58
T:George White's Favourite [in G]
M:C|
L:1/8
R:Reel
K:G
Bd[|:eB~B2 eBdB|ABBA GEDE|GB~B2 eB~B2|eBdB A2Bd|!
eB~B2 eBdB|AcBA GEDE|GABd gedB|1AGAB GABd:|2AGAB G3e|!
|:gedB dgba|gfga gedB|dg~g2 bgag|eaag a3g|!
bgeg d2ef|gede gaba|~g3d egdB|1AGAB G3e:|2AGAB GABd|]!
